X: 8076
T: Conor O'Reilly
R: jig
M: 6/8
K: Aminor
|:eAA ABd|ef/e/d dBg|dBA GAB|BAA ABd|
eAA ABd|ef/e/d dBg|dBA GAB|BAA A3:|
|:ga/g/f ged|ef/e/d dBA|ga/g/f ged|eaa a2b|
ga/g/f ged|ef/e/d BAf|gee dBA|BAA A3:|

